svgs/duotone/vent-damper.svg

<svg xmlns="http://www.w3.org/2000/svg" viewBox="0 0 640 512"><!--! Font Awesome Pro 6.6.0 by @fontawesome - https://fontawesome.com License - https://fontawesome.com/license (Commercial License) Copyright 2024 Fonticons, Inc. --><path class="fa-secondary" style="fill:var(--fa-secondary-color,inherit);opacity:var(--fa-secondary-opacity,.4);" d="M0 192L0 320c0 17.7 14.3 32 32 32l32 0 0-192-32 0c-17.7 0-32 14.3-32 32zm576-32l0 192 32 0c17.7 0 32-14.3 32-32l0-128c0-17.7-14.3-32-32-32l-32 0z"/><path class="fa-primary" style="fill:var(--fa-primary-color,inherit);opacity:var(--fa-primary-opacity,1);" d="M128 64c-35.3 0-64 28.7-64 64l0 256c0 35.3 28.7 64 64 64l384 0c35.3 0 64-28.7 64-64l0-256c0-35.3-28.7-64-64-64L128 64zm56 80l272 0c13.3 0 24 10.7 24 24s-10.7 24-24 24l-272 0c-13.3 0-24-10.7-24-24s10.7-24 24-24zm0 88l272 0c13.3 0 24 10.7 24 24s-10.7 24-24 24l-272 0c-13.3 0-24-10.7-24-24s10.7-24 24-24zm0 88l272 0c13.3 0 24 10.7 24 24s-10.7 24-24 24l-272 0c-13.3 0-24-10.7-24-24s10.7-24 24-24z"/></svg>

<svg xmlns="http://www.w3.org/2000/svg" viewBox="0 0 640 512"><!--! Font Awesome Pro 6.4.2 by @fontawesome - https://fontawesome.com License - https://fontawesome.com/license (Commercial License) Copyright 2023 Fonticons, Inc. --><path class="fa-primary" style="fill:var(--fa-primary-color,inherit);opacity:var(--fa-primary-opacity,1);" d="M128 64c-35.3 0-64 28.7-64 64V384c0 35.3 28.7 64 64 64H512c35.3 0 64-28.7 64-64V128c0-35.3-28.7-64-64-64H128zm56 80H456c13.3 0 24 10.7 24 24s-10.7 24-24 24H184c-13.3 0-24-10.7-24-24s10.7-24 24-24zm0 88H456c13.3 0 24 10.7 24 24s-10.7 24-24 24H184c-13.3 0-24-10.7-24-24s10.7-24 24-24zm0 88H456c13.3 0 24 10.7 24 24s-10.7 24-24 24H184c-13.3 0-24-10.7-24-24s10.7-24 24-24z"/><path class="fa-secondary" style="fill:var(--fa-secondary-color,inherit);opacity:var(--fa-secondary-opacity,.4);" d="M64 160H32c-17.7 0-32 14.3-32 32V320c0 17.7 14.3 32 32 32H64V160zM576 352h32c17.7 0 32-14.3 32-32V192c0-17.7-14.3-32-32-32H576V352z"/></svg>
